assets/svg/icon_profile_notification_off.svg

<svg width="24" height="24" viewBox="0 0 24 24" fill="none" xmlns="http://www.w3.org/2000/svg">
<g id="icon/profile/notification_off">
<path id="Vector" d="M19.1349 12.4033L18.7174 12.6785H18.7174L19.1349 12.4033ZM20.1946 14.0109L20.6121 13.7357L20.1946 14.0109ZM3.83136 14.0109L4.24881 14.2861L3.83136 14.0109ZM4.89113 12.4033L4.47369 12.1281H4.47369L4.89113 12.4033ZM18.7401 17.9393L18.6071 17.4573L18.7401 17.9393ZM5.28594 17.9393L5.41887 17.4573H5.41887L5.28594 17.9393ZM8.32986 18.6878C8.2339 18.4289 7.9462 18.2967 7.68727 18.3927C7.42834 18.4887 7.29622 18.7764 7.39219 19.0353L8.32986 18.6878ZM16.6338 19.0353C16.7298 18.7764 16.5977 18.4887 16.3387 18.3927C16.0798 18.2967 15.7921 18.4289 15.6961 18.6878L16.6338 19.0353ZM12.513 7.95673C12.513 7.68059 12.2891 7.45673 12.013 7.45673C11.7369 7.45673 11.513 7.68059 11.513 7.95673H12.513ZM11.513 13.205C11.513 13.4812 11.7369 13.705 12.013 13.705C12.2891 13.705 12.513 13.4812 12.513 13.205H11.513ZM9.41801 10.0809C9.14187 10.0809 8.91801 10.3047 8.91801 10.5809C8.91801 10.857 9.14187 11.0809 9.41801 11.0809V10.0809ZM14.608 11.0809C14.8841 11.0809 15.108 10.857 15.108 10.5809C15.108 10.3047 14.8841 10.0809 14.608 10.0809V11.0809ZM17.9716 9.53123V10.1882H18.9716V9.53123H17.9716ZM18.7174 12.6785L19.7772 14.2861L20.6121 13.7357L19.5523 12.1281L18.7174 12.6785ZM4.24881 14.2861L5.30858 12.6785L4.47369 12.1281L3.41392 13.7357L4.24881 14.2861ZM6.05437 10.1882V9.53123H5.05437V10.1882H6.05437ZM18.6071 17.4573C14.2898 18.648 9.73615 18.648 5.41887 17.4573L5.15301 18.4213C9.64428 19.66 14.3817 19.66 18.873 18.4213L18.6071 17.4573ZM5.30858 12.6785C5.79509 11.9406 6.05437 11.0741 6.05437 10.1882H5.05437C5.05437 10.8791 4.85211 11.5541 4.47369 12.1281L5.30858 12.6785ZM17.9716 10.1882C17.9716 11.0741 18.2309 11.9406 18.7174 12.6785L19.5523 12.1281C19.1739 11.5541 18.9716 10.8791 18.9716 10.1882H17.9716ZM3.41392 13.7357C2.26201 15.4829 3.1368 17.8653 5.15301 18.4213L5.41887 17.4573C4.0679 17.0847 3.46473 15.4754 4.24881 14.2861L3.41392 13.7357ZM19.7772 14.2861C20.5613 15.4754 19.9581 17.0847 18.6071 17.4573L18.873 18.4213C20.8892 17.8653 21.764 15.4829 20.6121 13.7357L19.7772 14.2861ZM12.013 3.5C15.2986 3.5 17.9716 6.19499 17.9716 9.53123H18.9716C18.9716 5.65327 15.8614 2.5 12.013 2.5V3.5ZM12.013 2.5C8.1646 2.5 5.05437 5.65327 5.05437 9.53123H6.05437C6.05437 6.19499 8.7274 3.5 12.013 3.5V2.5ZM7.39219 19.0353C8.07109 20.8672 9.8924 22.1606 12.013 22.1606V21.1606C10.2999 21.1606 8.8597 20.1174 8.32986 18.6878L7.39219 19.0353ZM12.013 22.1606C14.1336 22.1606 15.9549 20.8672 16.6338 19.0353L15.6961 18.6878C15.1663 20.1174 13.7261 21.1606 12.013 21.1606V22.1606ZM11.513 7.95673V10.5809H12.513V7.95673H11.513ZM11.513 10.5809V13.205H12.513V10.5809H11.513ZM12.013 10.0809H9.41801V11.0809H12.013V10.0809ZM12.013 11.0809H14.608V10.0809H12.013V11.0809Z" fill="#0E0E0E"/>
</g>
</svg>

<svg xmlns="http://www.w3.org/2000/svg" width="24" height="24" fill="none"><path fill="#0E0E0E" d="m19.135 12.403-.418.275zm1.06 1.608.417-.275zm-16.364 0 .418.275zm1.06-1.608-.417-.275zm13.85 5.536-.134-.482zm-13.455 0 .133-.482zm3.044.749a.5.5 0 1 0-.938.347zm8.304.347a.5.5 0 1 0-.938-.347zM12.513 7.957a.5.5 0 0 0-1 0zm-1 5.248a.5.5 0 1 0 1 0zm-2.095-3.124a.5.5 0 1 0 0 1zm5.19 1a.5.5 0 0 0 0-1zm3.364-1.55v.657h1v-.657zm.745 3.147 1.06 1.608.835-.55-1.06-1.608zM4.25 14.287l1.06-1.607-.835-.55-1.06 1.607zm1.805-4.098v-.657h-1v.657zm12.553 7.27a24.8 24.8 0 0 1-13.188 0l-.266.963a25.8 25.8 0 0 0 13.72 0zM5.31 12.677a4.53 4.53 0 0 0 .745-2.49h-1c0 .691-.202 1.366-.58 1.94zm12.663-2.49c0 .886.259 1.753.745 2.49l.835-.55a3.53 3.53 0 0 1-.58-1.94zM3.414 13.736c-1.152 1.747-.277 4.13 1.739 4.685l.266-.964c-1.351-.372-1.954-1.982-1.17-3.17zm16.363.55c.784 1.19.181 2.799-1.17 3.171l.266.964c2.016-.556 2.891-2.938 1.74-4.685zM12.013 3.5c3.286 0 5.959 2.695 5.959 6.031h1c0-3.878-3.11-7.031-6.959-7.031zm0-1c-3.848 0-6.959 3.153-6.959 7.031h1c0-3.336 2.673-6.031 5.959-6.031zm-4.62 16.535c.678 1.832 2.5 3.126 4.62 3.126v-1c-1.713 0-3.153-1.044-3.683-2.473zm4.62 3.126c2.12 0 3.942-1.294 4.62-3.126l-.937-.347c-.53 1.43-1.97 2.473-3.683 2.473zm-.5-14.204v2.624h1V7.957zm0 2.624v2.624h1v-2.624zm.5-.5H9.418v1h2.595zm0 1h2.595v-1h-2.595z"/></svg>
